web/public/images/passport-officer-ic.svg

<?xml version="1.0" encoding="UTF-8" standalone="no"?>
<svg width="145px" height="144px" viewBox="0 0 145 144" version="1.1" xmlns="http://www.w3.org/2000/svg" xmlns:xlink="http://www.w3.org/1999/xlink">
    <!-- Generator: Sketch 50.2 (55047) - http://www.bohemiancoding.com/sketch -->
    <title>passport_officer_ic</title>
    <desc>Created with Sketch.</desc>
    <defs></defs>
    <g id="Page-1" stroke="none" stroke-width="1" fill="none" fill-rule="evenodd">
        <g id="Group-20" transform="translate(-700.000000, 0.000000)" fill="#FFFFFF" fill-rule="nonzero">
            <g id="passport_officer_ic" transform="translate(700.000000, 0.000000)">
                <path d="M138.998289,55.918993 C135.108068,55.0448654 131.065526,56.3621635 128.38533,59.3579262 L121.549633,67 L118,67 L118,32 L139,32 L139,55.918993 L138.998289,55.918993 Z" id="Shape"></path>
                <rect id="Rectangle-path" x="0" y="128" width="134" height="16"></rect>
                <path d="M142.657268,72.948408 L112.638404,105.678849 C112.185893,106.181036 111.686391,106.617419 111.136416,107.01051 C106.731399,110.182943 100.572032,109.194155 97.3835716,104.821669 L87.6476297,91.4132879 C86.4850252,89.816681 84.227693,89.451297 82.6125778,90.6132528 C81.68145,91.2816804 81.129735,92.3674424 81.129735,93.5172764 L81.129735,124 L33,124 L90.01983,64.199972 L103.501168,82.7445091 C104.65333,84.3497744 106.921105,84.7099633 108.532739,83.5549343 C108.732888,83.4129367 108.913892,83.2415006 109.079233,83.0631378 L129.393483,60.921906 C132.7351,57.2680659 138.412369,57.0048509 142.069004,60.3365989 C145.744783,63.6614202 145.988443,69.310153 142.657268,72.948408 Z" id="Shape"></path>
                <path d="M23.9445632,124 L29.9621687,111.388293 L80,59 L41.1397182,59 C37.4086281,59 34.0059298,61.1427237 32.4111333,64.4930066 L4,124 L23.9445632,124 Z" id="Shape"></path>
                <path d="M41.2435678,21.182589 L81.7869122,18.006136 C81.9575843,17.9902449 82.1195487,18.006136 82.2902209,18.0432152 L91.4124734,19.7470936 C92.2728003,19.9236613 92.9223995,20.6511202 92.9938031,21.5304274 C93.0791392,22.6216158 92.2728003,23.5697844 91.2121948,23.6439429 L82.161346,24.3555107 C82.8753825,28.1358253 82.5897679,32.0520971 81.3149514,35.6823291 C77.3529193,46.9032069 65.1812082,52.7423009 54.1206076,48.7377453 C43.0600071,44.7384868 37.295468,32.3964041 41.2435678,21.182589 Z" id="Shape"></path>
                <path d="M41.2177328,15 L82.3544633,11.9038943 L87.2600509,5.63964057 C88.4675801,4.10445243 88.1656978,1.90544551 86.5843259,0.728753814 C85.8857843,0.198727964 85.0082194,-0.0499896676 84.1271443,0.00833032883 L42.3146889,3.1679019 C40.3366577,3.32056307 38.8535731,5.00841238 39.0115348,6.93468755 C39.0255758,7.16110636 39.0712092,7.38237929 39.1308836,7.59679104 L41.2177328,15 Z" id="Shape"></path>
            </g>
        </g>
    </g>
</svg>

<svg xmlns="http://www.w3.org/2000/svg" width="145" height="144"><g fill="#FFF" fill-rule="nonzero"><path d="M138.998 55.919c-3.89-.874-7.932.443-10.613 3.439L121.55 67H118V32h21v23.919zM0 128h134v16H0z"/><path d="m142.657 72.948-30.019 32.73a9.2 9.2 0 0 1-1.502 1.333c-4.405 3.172-10.564 2.183-13.752-2.19l-9.736-13.408a3.623 3.623 0 0 0-5.035-.8 3.58 3.58 0 0 0-1.483 2.904V124H33l57.02-59.8L103.5 82.745c1.152 1.605 3.42 1.965 5.032.81.2-.142.38-.313.546-.492l20.314-22.141c3.342-3.654 9.02-3.917 12.676-.585 3.676 3.324 3.92 8.973.588 12.611M23.945 124l6.017-12.612L80 59H41.14a9.67 9.67 0 0 0-8.729 5.493L4 124zM41.244 21.183l40.543-3.177c.17-.016.333 0 .503.037l9.122 1.704a1.99 1.99 0 0 1 1.582 1.783c.085 1.092-.721 2.04-1.782 2.114l-9.05.712c.713 3.78.428 7.696-.847 11.326-3.962 11.221-16.134 17.06-27.194 13.056-11.061-4-16.826-16.342-12.877-27.555M41.218 15l41.136-3.096L87.26 5.64c1.208-1.536.906-3.735-.676-4.911a3.66 3.66 0 0 0-2.457-.72L42.315 3.167c-1.978.153-3.461 1.84-3.303 3.767.014.226.06.447.119.662z"/></g></svg>
